img/mail_icon.svg

<svg width="20" height="20" viewBox="0 0 20 20" fill="none" xmlns="http://www.w3.org/2000/svg">
<path d="M10.7203 0.0285646C9.28974 -0.0755702 7.85355 0.129531 6.50934 0.629925C5.16513 1.13032 3.94442 1.91427 2.9302 2.92849C1.91598 3.94272 1.13203 5.16342 0.631634 6.50763C0.13124 7.85184 -0.0738612 9.28803 0.0302736 10.7186C0.390274 16.0086 5.01027 19.9986 10.3103 19.9986H14.0003C14.5503 19.9986 15.0003 19.5486 15.0003 18.9986C15.0003 18.4486 14.5503 17.9986 14.0003 17.9986H10.3303C6.60027 17.9986 3.18027 15.5786 2.25027 11.9686C0.760274 6.16857 6.16027 0.758565 11.9603 2.25857C15.5803 3.17857 18.0003 6.59857 18.0003 10.3286V11.4286C18.0003 12.2186 17.2903 12.9986 16.5003 12.9986C15.7103 12.9986 15.0003 12.2186 15.0003 11.4286V10.1786C15.0003 7.66857 13.2203 5.40857 10.7403 5.05857C9.95123 4.94124 9.14558 5.0141 8.39039 5.27108C7.6352 5.52807 6.95232 5.96173 6.39861 6.53598C5.84491 7.11023 5.43639 7.80845 5.20708 8.5725C4.97777 9.33654 4.93429 10.1443 5.08027 10.9286C5.25566 11.8735 5.6999 12.7479 6.35972 13.4467C7.01954 14.1455 7.86692 14.6392 8.80027 14.8686C10.6403 15.2986 12.3903 14.7086 13.5403 13.5386C14.4303 14.7586 16.2103 15.3986 17.8403 14.7486C19.1803 14.2186 20.0003 12.8486 20.0003 11.4086V10.3186C20.0003 5.00856 16.0103 0.388565 10.7203 0.0285646ZM10.0003 12.9986C8.34027 12.9986 7.00027 11.6586 7.00027 9.99857C7.00027 8.33857 8.34027 6.99857 10.0003 6.99857C11.6603 6.99857 13.0003 8.33857 13.0003 9.99857C13.0003 11.6586 11.6603 12.9986 10.0003 12.9986Z" fill="#281464"/>
</svg>

<svg width="20" height="20" fill="none" xmlns="http://www.w3.org/2000/svg"><path d="M10.72.029A9.991 9.991 0 0 0 .03 10.719c.36 5.29 4.98 9.28 10.28 9.28H14c.55 0 1-.45 1-1s-.45-1-1-1h-3.67c-3.73 0-7.15-2.42-8.08-6.03-1.49-5.8 3.91-11.21 9.71-9.71 3.62.92 6.04 4.34 6.04 8.07v1.1c0 .79-.71 1.57-1.5 1.57s-1.5-.78-1.5-1.57v-1.25c0-2.51-1.78-4.77-4.26-5.12a5.008 5.008 0 0 0-4.38 8.388 4.997 4.997 0 0 0 2.44 1.422c1.84.43 3.59-.16 4.74-1.33.89 1.22 2.67 1.86 4.3 1.21 1.34-.53 2.16-1.9 2.16-3.34v-1.09c0-5.31-3.99-9.93-9.28-10.29ZM10 12.999c-1.66 0-3-1.34-3-3s1.34-3 3-3 3 1.34 3 3-1.34 3-3 3Z" fill="#281464"/></svg>
